src/assets/icons/share.svg

<svg width="24" height="25" viewBox="0 0 24 25" fill="none" xmlns="http://www.w3.org/2000/svg">
<path d="M8.78851 19.4144L7.57351 20.6219C7.06452 21.1229 6.37896 21.4037 5.66476 21.4037C4.95057 21.4037 4.26501 21.1229 3.75601 20.6219C3.50785 20.3762 3.31085 20.0837 3.1764 19.7613C3.04196 19.439 2.97274 19.0932 2.97274 18.7439C2.97274 18.3946 3.04196 18.0488 3.1764 17.7265C3.31085 17.4041 3.50785 17.1116 3.75601 16.8659L8.22601 12.4333C9.15151 11.5138 10.8945 10.1608 12.165 11.4208C12.3017 11.5666 12.4664 11.6833 12.6493 11.7641C12.8321 11.8448 13.0293 11.8879 13.2292 11.8907C13.429 11.8936 13.6274 11.8562 13.8125 11.7807C13.9975 11.7052 14.1655 11.5931 14.3063 11.4513C14.4471 11.3095 14.5579 11.1407 14.6321 10.9551C14.7063 10.7695 14.7423 10.5709 14.738 10.3711C14.7338 10.1712 14.6893 9.97431 14.6072 9.79205C14.5252 9.60979 14.4073 9.44593 14.2605 9.31025C12.1035 7.16822 8.91151 7.56422 6.13201 10.3228L1.66202 14.7568C1.13386 15.2776 0.714832 15.8984 0.429459 16.583C0.144086 17.2676 -0.00190766 18.0022 1.88199e-05 18.7439C-0.00182391 19.4856 0.144208 20.2202 0.429576 20.9048C0.714944 21.5894 1.13392 22.2102 1.66202 22.731C2.72656 23.7869 4.1661 24.3781 5.66551 24.375C7.11601 24.375 8.56651 23.8275 9.66901 22.731L10.8855 21.5234C11.0242 21.3862 11.1345 21.223 11.21 21.0431C11.2855 20.8632 11.3247 20.6701 11.3254 20.475C11.3261 20.2799 11.2883 20.0865 11.2141 19.9061C11.1399 19.7256 11.0308 19.5616 10.893 19.4234C10.6146 19.1442 10.2369 18.9865 9.84261 18.9849C9.4483 18.9832 9.06934 19.1376 8.78851 19.4144ZM22.3365 2.18814C20.016 -0.112902 16.773 -0.237404 14.628 1.89263L13.1145 3.39565C12.8348 3.67334 12.6769 4.05075 12.6755 4.44487C12.6741 4.83898 12.8293 5.21751 13.107 5.49719C13.3847 5.77686 13.7621 5.93477 14.1562 5.93618C14.5503 5.93759 14.9288 5.78237 15.2085 5.50469L16.7235 4.00316C17.8335 2.89915 19.29 3.35665 20.2425 4.29867C20.7465 4.80118 21.0255 5.46719 21.0255 6.1767C21.0255 6.88621 20.7465 7.55222 20.2425 8.05323L15.4725 12.7843C13.2915 14.9458 12.2685 13.9333 11.832 13.4998C11.6935 13.3623 11.5293 13.2534 11.3488 13.1794C11.1682 13.1054 10.9748 13.0676 10.7797 13.0683C10.5846 13.069 10.3915 13.1081 10.2114 13.1835C10.0314 13.2588 9.868 13.3688 9.73051 13.5073C9.59301 13.6458 9.48414 13.81 9.41011 13.9906C9.33607 14.1711 9.29833 14.3645 9.29902 14.5596C9.29972 14.7548 9.33885 14.9479 9.41417 15.1279C9.48949 15.3079 9.59953 15.4714 9.73801 15.6089C10.74 16.6019 11.883 17.0939 13.08 17.0939C14.5455 17.0939 16.095 16.3559 17.5695 14.8933L22.3395 10.1638C22.8665 9.64226 23.2847 9.02126 23.5697 8.33682C23.8548 7.65238 24.001 6.91813 24 6.1767C24.0013 5.43473 23.8549 4.69992 23.5693 4.01513C23.2837 3.33034 22.8646 2.70926 22.3365 2.18814Z" fill="#303030"/>
</svg>

<svg width="24" height="25" fill="none" xmlns="http://www.w3.org/2000/svg"><path d="m8.789 19.414-1.215 1.208a2.721 2.721 0 0 1-3.818 0 2.642 2.642 0 0 1 0-3.756l4.47-4.433c.926-.92 2.668-2.272 3.939-1.012a1.488 1.488 0 1 0 2.096-2.11c-2.157-2.143-5.35-1.747-8.129 1.012l-4.47 4.434A5.58 5.58 0 0 0 0 18.744a5.58 5.58 0 0 0 1.662 3.987 5.668 5.668 0 0 0 4.004 1.644 5.66 5.66 0 0 0 4.003-1.644l1.216-1.208a1.483 1.483 0 0 0-1.042-2.538 1.492 1.492 0 0 0-1.054.43ZM22.337 2.188c-2.321-2.3-5.564-2.425-7.709-.295l-1.514 1.503a1.486 1.486 0 1 0 2.095 2.109l1.515-1.502c1.11-1.104 2.566-.646 3.518.296.505.502.784 1.168.784 1.878s-.28 1.375-.784 1.876l-4.77 4.731c-2.18 2.162-3.204 1.15-3.64.716a1.486 1.486 0 1 0-2.094 2.109c1.002.993 2.145 1.485 3.342 1.485 1.466 0 3.015-.738 4.49-2.2l4.77-4.73A5.598 5.598 0 0 0 24 6.177a5.59 5.59 0 0 0-1.663-3.989Z" fill="#303030"/></svg>
